assets/svg/icon-ui-hl7-gear-blue.svg

<?xml version="1.0" encoding="UTF-8" standalone="no"?>
<svg width="32px" height="32px" viewBox="0 0 32 32" version="1.1" xmlns="http://www.w3.org/2000/svg" xmlns:xlink="http://www.w3.org/1999/xlink">
    <!-- Generator: Sketch 3.8.3 (29802) - http://www.bohemiancoding.com/sketch -->
    <title>blue/icon-ui-hl7-gear-blue</title>
    <desc>Created with Sketch.</desc>
    <defs></defs>
    <g id="blue,-base" stroke="none" stroke-width="1" fill="none" fill-rule="evenodd">
        <g id="icons,-utility-(blue)" transform="translate(-253.000000, -765.000000)" fill="#1055FF">
            <g id="blue/icon-ui-hl7-gear-blue" transform="translate(253.000000, 765.000000)">
                <path d="M29.5203189,12.9979937 C28.968986,12.9596604 28.4246528,12.4909939 28.256653,11.9649942 C28.053653,11.3276612 27.8003198,10.7123281 27.5016533,10.1246618 C27.2509868,9.63232866 27.3063202,8.91432901 27.66832,8.49699588 L29.2443191,6.67999676 C29.4923191,6.43233022 29.4493191,6.07299705 29.2013191,5.82566384 L26.4649872,3.08866517 C26.2169872,2.84133195 25.8583207,2.79833198 25.6103209,3.04633186 L23.8236551,4.59633111 C23.406322,4.95833093 22.6923223,5.0073309 22.2039892,4.74966436 C21.5993228,4.43033118 20.9656565,4.15933132 20.3076569,3.94166475 C19.7833237,3.7683315 19.3146572,3.22033177 19.2749906,2.66933204 L19.1103241,0.445999787 C19.1103241,0.0956666133 18.8263243,0 18.4759911,0 L14.6063262,0 C14.2553264,0 13.9709932,0.0956666133 13.9709932,0.445999787 L13.8113266,2.63399872 C13.7716599,3.18466512 13.3009936,3.70666487 12.7723271,3.86699813 C12.0706608,4.07999803 11.3953278,4.34566455 10.7523282,4.67299774 C10.259995,4.92366428 9.54199538,4.86533097 9.12466222,4.50366448 L7.43066311,3.03266519 C7.18332978,2.78533198 6.80866329,2.8116653 6.56066347,3.05899852 L3.82433156,5.79499719 C3.57633156,6.0433304 3.54899822,6.41733022 3.79699822,6.66499676 L5.23866418,8.32699596 C5.60033067,8.74432908 5.64933067,9.45832875 5.39033067,9.94632852 C5.05099751,10.5873282 4.76599769,11.2613279 4.5413312,11.9623275 C4.37266453,12.4883273 3.82833156,12.9586604 3.27766507,12.9989937 L0.850666311,13.162327 C0.500666489,13.162327 0,13.4466601 0,13.7963266 L0,17.6669915 C0,18.0169913 0.500666489,18.3013244 0.850666311,18.3013244 L3.16766507,18.4636578 C3.71833156,18.5036578 4.30799787,18.9746574 4.47399787,19.5016572 C4.70099769,20.2259902 5.01666418,20.9216565 5.36599733,21.5823228 C5.624664,22.070656 5.58699733,22.783989 5.22499751,23.2013221 L3.80599822,24.8446546 C3.55833156,25.0923212 3.60366489,25.4513211 3.85166471,25.6993209 L6.5899968,28.4356528 C6.83799662,28.6833195 7.19732978,28.7259861 7.44532978,28.4786528 L9.11932889,27.0269868 C9.53666204,26.664987 10.253995,26.6106537 10.7463282,26.8616537 C11.3909945,27.1903202 12.0679941,27.46432 12.7709938,27.6779865 C13.2996603,27.8379865 13.7703266,28.3763196 13.8086599,28.9273193 L13.9709932,31.2856516 C13.9709932,31.6359847 14.2553264,31.9999845 14.6063262,31.9999845 L18.4759911,31.9999845 C18.8263243,31.9999845 19.1103241,31.6359847 19.1103241,31.2856516 L19.2776572,28.8916526 C19.3159906,28.3403196 19.7839904,27.7766532 20.3086569,27.6029867 C20.9683232,27.3849867 21.6036562,27.1059868 22.2093225,26.7856537 C22.6973223,26.5273205 23.4116553,26.5719872 23.8289884,26.933987 L25.5953209,28.4649861 C25.8433207,28.7129861 26.1863207,28.6536528 26.4343205,28.4053196 L29.1706524,25.6686542 C29.4189858,25.4213211 29.4766524,25.0773212 29.2293191,24.8296546 L27.6689867,23.0313221 C27.3069868,22.613989 27.2523202,21.8963227 27.50232,21.4039897 C27.8106532,20.7959899 28.0713196,20.1593236 28.277653,19.4993239 C28.4429861,18.9723241 28.9846526,18.5029911 29.5353189,18.4646578 L31.6906514,18.3013244 C32.0409845,18.3013244 31.9999845,18.0169913 31.9999845,17.6669915 L31.9999845,13.7963266 C31.9999845,13.4466601 32.0409845,13.162327 31.6906514,13.162327 L29.5203189,12.9979937 L29.5203189,12.9979937 Z M16.1797675,24.8089767 C21.0448352,24.8089767 24.988752,20.8650601 24.988752,15.9999922 C24.988752,11.1349244 21.0448352,7.19100775 16.1797675,7.19100775 C11.3146996,7.19100775 7.37078293,11.1349244 7.37078293,15.9999922 C7.37078293,20.8650601 11.3146996,24.8089767 16.1797675,24.8089767 L16.1797675,24.8089767 Z M16.1797675,23.0661538 C20.0823007,23.0661538 23.2459289,19.9025255 23.2459289,15.9999922 C23.2459289,12.097459 20.0823007,8.93383075 16.1797675,8.93383075 C12.2772342,8.93383075 9.11360587,12.097459 9.11360587,15.9999922 C9.11360587,19.9025255 12.2772342,23.0661538 16.1797675,23.0661538 L16.1797675,23.0661538 Z" id="Fill-10"></path>
            </g>
        </g>
    </g>
</svg>

<svg width="32" height="32" viewBox="0 0 32 32" xmlns="http://www.w3.org/2000/svg"><title>blue/icon-ui-hl7-gear-blue</title><path d="M29.52 12.998c-.551-.038-1.095-.507-1.263-1.033a12.305 12.305 0 0 0-.755-1.84c-.251-.493-.196-1.21.166-1.628l1.576-1.817c.248-.248.205-.607-.043-.854l-2.736-2.737c-.248-.248-.607-.29-.855-.043l-1.786 1.55c-.418.362-1.132.411-1.62.154-.605-.32-1.238-.59-1.896-.808-.525-.174-.993-.722-1.033-1.273L19.11.446c0-.35-.284-.446-.634-.446h-3.87c-.35 0-.635.096-.635.446l-.16 2.188c-.04.55-.51 1.073-1.039 1.233-.701.213-1.377.479-2.02.806-.492.25-1.21.192-1.627-.17L7.43 3.034c-.248-.248-.622-.221-.87.026L3.824 5.795c-.248.248-.275.622-.027.87l1.442 1.662c.361.417.41 1.131.151 1.62-.339.64-.624 1.314-.849 2.015-.168.526-.713.997-1.263 1.037l-2.427.163c-.35 0-.851.285-.851.634v3.871c0 .35.5.634.85.634l2.318.163c.55.04 1.14.51 1.306 1.038.227.724.543 1.42.892 2.08.259.489.221 1.202-.141 1.62l-1.419 1.643c-.248.247-.202.606.046.854l2.738 2.737c.248.247.607.29.855.043l1.674-1.452c.418-.362 1.135-.416 1.627-.165a12.39 12.39 0 0 0 2.025.816c.529.16 1 .698 1.038 1.25l.162 2.358c0 .35.284.714.635.714h3.87c.35 0 .634-.364.634-.714l.168-2.394c.038-.552.506-1.115 1.03-1.289.66-.218 1.296-.497 1.901-.817.488-.259 1.203-.214 1.62.148l1.766 1.531c.248.248.591.189.84-.06l2.736-2.736c.248-.248.306-.592.058-.84l-1.56-1.798c-.362-.417-.417-1.135-.167-1.627.309-.608.57-1.245.776-1.905.165-.527.707-.996 1.257-1.034l2.156-.164c.35 0 .309-.284.309-.634v-3.87c0-.35.041-.635-.31-.635l-2.17-.164zM16.18 24.809a8.809 8.809 0 1 0 0-17.618 8.809 8.809 0 0 0 0 17.618zm0-1.743a7.066 7.066 0 1 0 0-14.132 7.066 7.066 0 0 0 0 14.132z" fill="#1055FF" fill-rule="evenodd"/></svg>
